src/asset/cabinet/send_icon.svg

<svg width="24" height="24" viewBox="0 0 24 24" fill="none" xmlns="http://www.w3.org/2000/svg">
<path fill="currentColor" fill-rule="evenodd" clip-rule="evenodd" d="M6.5 5C5.67112 5 5 5.67063 5 6.4986V17.5031C5 18.3305 5.67056 19 6.5 19H17.5C18.3284 19 19 18.3284 19 17.5V16C19 15.7239 19.2239 15.5 19.5 15.5C19.7761 15.5 20 15.7239 20 16V17.5C20 18.8807 18.8807 20 17.5 20H6.5C5.1203 20 4 18.8848 4 17.5031V6.4986C4 5.11743 5.11975 4 6.5 4H8C8.27614 4 8.5 4.22386 8.5 4.5C8.5 4.77614 8.27614 5 8 5H6.5Z" fill="black" fill-opacity="0.87"/>
<path fill="currentColor" fill-rule="evenodd" clip-rule="evenodd" d="M16.3087 3.03808C16.4955 2.96068 16.7106 3.00346 16.8536 3.14646L21.8034 8.09626C21.9986 8.29153 21.9986 8.60811 21.8034 8.80337L16.8536 13.7531C16.7106 13.8961 16.4956 13.9389 16.3087 13.8615C16.1219 13.7841 16.0001 13.6018 16.0001 13.3996L16 11.0071C13.3599 11.0833 11.6447 11.7655 10.5824 12.7109C9.46163 13.7083 9 15.0591 9 16.5C9 16.7762 8.77614 17 8.5 17C8.22386 17 8 16.7762 8 16.5C8 12.9399 8.76127 10.3035 10.2433 8.55204C11.6417 6.89943 13.6202 6.10579 16 6.00994L16 3.50002C16 3.29779 16.1218 3.11547 16.3087 3.03808ZM9.44254 12.4393C9.58833 12.2749 9.74649 12.1161 9.9176 11.9638C11.2897 10.7427 13.4256 10 16.5 10C16.7761 10 17 10.2239 17 10.5L17 12.1925L20.7427 8.44982L17 4.70714L17.0001 6.50001C17.0001 6.63262 16.9474 6.75979 16.8536 6.85356C16.7598 6.94733 16.6327 7.00001 16.5001 7.00001C14.1031 7.00001 12.2615 7.71501 11.0067 9.19799C10.318 10.0119 9.7854 11.0811 9.44254 12.4393Z" fill="black" fill-opacity="0.87"/>
</svg>

<svg width="24" height="24" fill="none" xmlns="http://www.w3.org/2000/svg"><path fill="#000" fill-rule="evenodd" clip-rule="evenodd" d="M6.5 5C5.671 5 5 5.67 5 6.499v11.004C5 18.331 5.67 19 6.5 19h11a1.5 1.5 0 001.5-1.5V16a.5.5 0 011 0v1.5a2.5 2.5 0 01-2.5 2.5h-11C5.12 20 4 18.885 4 17.503V6.5A2.499 2.499 0 016.5 4H8a.5.5 0 010 1H6.5z" fill-opacity=".87"/><path fill="#000" fill-rule="evenodd" clip-rule="evenodd" d="M16.309 3.038a.5.5 0 01.545.108l4.95 4.95a.5.5 0 010 .707l-4.95 4.95A.5.5 0 0116 13.4v-2.393c-2.64.076-4.355.758-5.418 1.704C9.462 13.708 9 15.059 9 16.5a.5.5 0 11-1 0c0-3.56.761-6.197 2.243-7.948C11.642 6.899 13.62 6.106 16 6.01V3.5a.5.5 0 01.309-.462zM9.443 12.44c.145-.164.303-.323.475-.475C11.29 10.743 13.426 10 16.5 10a.5.5 0 01.5.5v1.693l3.743-3.743L17 4.707V6.5a.5.5 0 01-.5.5c-2.397 0-4.239.715-5.493 2.198-.689.814-1.222 1.883-1.564 3.241z" fill-opacity=".87"/></svg>
